src/lib/packages/icons/src/assets/filled/university.svg

<svg width="24" height="24" viewBox="0 0 24 24" fill="none" xmlns="http://www.w3.org/2000/svg">
<path d="M22 21.2501H21.5V12.5001C21.5 11.6721 21 11.0001 20 11.0001H19.8C19.634 11.0001 19.5 11.1341 19.5 11.3001V21.2501H18V6.57504L19.5861 7.62606C19.7131 7.71006 19.857 7.75106 19.999 7.75106C20.242 7.75106 20.48 7.63313 20.625 7.41513C20.854 7.07013 20.7599 6.60409 20.4139 6.37509L13.248 1.62802C12.49 1.12302 11.51 1.12204 10.754 1.62704L3.58606 6.37509C3.24006 6.60409 3.146 7.06913 3.375 7.41513C3.604 7.76013 4.06794 7.85506 4.41394 7.62606L6 6.57504V21.2501H4.5V11.3001C4.5 11.1341 4.36595 11.0001 4.19995 11.0001H4C3 11.0001 2.5 11.6721 2.5 12.5001V21.2501H2C1.586 21.2501 1.25 21.5861 1.25 22.0001C1.25 22.4141 1.586 22.7501 2 22.7501H22C22.414 22.7501 22.75 22.4141 22.75 22.0001C22.75 21.5861 22.414 21.2501 22 21.2501ZM9 14.2501C8.586 14.2501 8.25 13.9141 8.25 13.5001C8.25 13.0861 8.586 12.7501 9 12.7501C9.414 12.7501 9.75 13.0861 9.75 13.5001C9.75 13.9141 9.414 14.2501 9 14.2501ZM14 21.2501H10V19.0001C10 17.8961 10.896 17.0001 12 17.0001C13.104 17.0001 14 17.8961 14 19.0001V21.2501ZM11.25 13.5001C11.25 13.0861 11.586 12.7501 12 12.7501C12.414 12.7501 12.75 13.0861 12.75 13.5001C12.75 13.9141 12.414 14.2501 12 14.2501C11.586 14.2501 11.25 13.9141 11.25 13.5001ZM12 10.0001C10.896 10.0001 10 9.10409 10 8.00009C10 6.89609 10.896 6.00009 12 6.00009C13.104 6.00009 14 6.89609 14 8.00009C14 9.10409 13.104 10.0001 12 10.0001ZM15 14.2501C14.586 14.2501 14.25 13.9141 14.25 13.5001C14.25 13.0861 14.586 12.7501 15 12.7501C15.414 12.7501 15.75 13.0861 15.75 13.5001C15.75 13.9141 15.414 14.2501 15 14.2501Z" fill="currentColor"/>
</svg>

<svg xmlns="http://www.w3.org/2000/svg" width="24" height="24" fill="none"><path fill="currentColor" d="M22 21.25h-.5V12.5c0-.828-.5-1.5-1.5-1.5h-.2a.3.3 0 0 0-.3.3v9.95H18V6.575l1.586 1.051a.748.748 0 0 0 1.039-.21.75.75 0 0 0-.211-1.04l-7.166-4.748a2.242 2.242 0 0 0-2.494-.001L3.586 6.375a.75.75 0 1 0 .828 1.251L6 6.575V21.25H4.5V11.3a.3.3 0 0 0-.3-.3H4c-1 0-1.5.672-1.5 1.5v8.75H2a.75.75 0 0 0 0 1.5h20a.75.75 0 0 0 0-1.5Zm-13-7a.75.75 0 1 1 0-1.5.75.75 0 0 1 0 1.5Zm5 7h-4V19a2 2 0 0 1 4 0v2.25Zm-2.75-7.75a.75.75 0 1 1 1.5 0 .75.75 0 0 1-1.5 0ZM12 10a2 2 0 1 1 .001-4A2 2 0 0 1 12 10Zm3 4.25a.75.75 0 1 1 0-1.5.75.75 0 0 1 0 1.5Z"/></svg>
